X: 39444
T: Tarantella
R: jig
M: 6/8
K: Eminor
|:e2 e|B2 B e2 e|B3 B^AB|c2 c cdc|B3 BcB|
[1 A2 A A^GA|G2 G GAG|F2 A G2 F|E3:|
[2 A3 ABA|G2 D G2 A|F2 A G2 F|E3||
|:E2 F|GFG AGF|G2 E EFG|F2 F AGF|G2 E E2 F|
G2 G A2 F|G2 E E2 G|F2 A G2 F|E3:|
K: GMaj
|:DD/E/F|GDG BGB|d2 d ded|c2 c cdc|B3 DEF|
GDG BG/A/B|d2 d d^cd|fed cBA|G3:|

